X:7
T:Largo Law
R:strathspey
O:19th century Scottish
D:Howie, Dave  & Mac
Z:Paul Stewart Cranford (P.S.C.), <http://www.cranfordpub.com>
L:1/8
M:C|
Q:288
K:A
B|(A/B/c) E>F A>Bc>e|f<ae>c B/B/B B>c|(A/B/c) E>F A>Bc>e|f/e/f/g/ a>c A2 A:|
||g|a>ef>c e2 a>e|f<ae>c B2 B>g|a>ef>c e2 a>e|f<ae>c A/A/A A>g|
a>ef>c e2 a>e|f<ae>c B2 B<c|A<cE>F A>Bc>e|f/e/f/g/ a>c A2 A|]
